icons/Desktop.svg

<svg width="24" height="24" viewBox="0 0 24 24" fill="none" xmlns="http://www.w3.org/2000/svg">
<path fill-rule="evenodd" clip-rule="evenodd" d="M18.5,3.5c1.5188,0 2.75,1.23122 2.75,2.75v8c0,1.5188 -1.2312,2.75 -2.75,2.75h-3l0.9,1.2c0.8652,1.1537 0.0421,2.8 -1.4,2.8h-6c-1.44208,0 -2.26525,-1.6463 -1.4,-2.8l0.9,-1.2h-3c-1.51878,0 -2.75,-1.2312 -2.75,-2.75v-8c0,-1.51878 1.23122,-2.75 2.75,-2.75zM13.625,17h-3.25l-1.575,2.1c-0.12361,0.1648 -0.00601,0.4 0.2,0.4h6c0.206,0 0.3236,-0.2352 0.2,-0.4zM14.375,15.5h4.125c0.6904,0 1.25,-0.5596 1.25,-1.25v-8c0,-0.69036 -0.5596,-1.25 -1.25,-1.25h-13c-0.69036,0 -1.25,0.55964 -1.25,1.25v8c0,0.6904 0.55964,1.25 1.25,1.25h4.125h0.375h4z" fill="#002B51"/>
</svg>

<svg width="24" height="24" viewBox="0 0 24 24" fill="none" xmlns="http://www.w3.org/2000/svg">
<path fill-rule="evenodd" clip-rule="evenodd" d="M5.5 3.5C3.98122 3.5 2.75 4.73122 2.75 6.25V14.25C2.75 15.7688 3.98122 17 5.5 17H8.5L7.6 18.2C6.73475 19.3537 7.55792 21 9 21H15C16.4421 21 17.2652 19.3537 16.4 18.2L15.5 17H18.5C20.0188 17 21.25 15.7688 21.25 14.25V6.25C21.25 4.73122 20.0188 3.5 18.5 3.5H5.5ZM13.625 17H10.375L8.8 19.1C8.67639 19.2648 8.79399 19.5 9 19.5H15C15.206 19.5 15.3236 19.2648 15.2 19.1L13.625 17ZM14.375 15.5H18.5C19.1904 15.5 19.75 14.9404 19.75 14.25V6.25C19.75 5.55964 19.1904 5 18.5 5H5.5C4.80964 5 4.25 5.55964 4.25 6.25V14.25C4.25 14.9404 4.80964 15.5 5.5 15.5H9.625H10H14H14.375Z" fill="#002B51"/>
</svg>
